svgs/sharp-regular/brush.svg

<svg xmlns="http://www.w3.org/2000/svg" viewBox="0 0 384 512"><!--! Font Awesome Pro 6.6.0 by @fontawesome - https://fontawesome.com License - https://fontawesome.com/license (Commercial License) Copyright 2024 Fonticons, Inc. --><path d="M48 288L48 48l48 0 0 96 0 16 32 0 0-16 0-96 64 0 0 64 0 16 32 0 0-16 0-64 112 0 0 240L48 288zM0 384l48 0 80 0 0 128 128 0 0-128 80 0 48 0 0-48 0-288 0-48L336 0 48 0 0 0 0 48 0 336l0 48zm192 48a16 16 0 1 1 0 32 16 16 0 1 1 0-32z"/></svg>

<svg xmlns="http://www.w3.org/2000/svg" viewBox="0 0 384 512"><!--! Font Awesome Pro 6.4.0 by @fontawesome - https://fontawesome.com License - https://fontawesome.com/license (Commercial License) Copyright 2023 Fonticons, Inc. --><path d="M48 288V48H96v96 16h32V144 48h64v64 16h32V112 48H336V288H48zM0 384H48h80V512H256V384h80 48V336 48 0H336 48 0V48 336v48zm192 48a16 16 0 1 1 0 32 16 16 0 1 1 0-32z"/></svg>
